packages/ffe-icons/icons/filled/sm/bid_landscape_disabled.svg

<svg xmlns="http://www.w3.org/2000/svg" height="20" viewBox="0 -960 960 960" width="20"><path d="M707.846-164.001H228.309q-26.308 0-45.308-19t-19-45.308v-479.537l-68.385-68.385q-7.922-7.923-8.115-17.691-.192-9.769 8.115-18.077 8.308-8.307 18.885-8.307 10.576 0 18.884 8.307l679.614 680.614q7.923 7.923 8.115 17.884.192 9.962-8.115 18.27-8.308 8.307-17.884 8.307-9.577 0-17.884-8.308L707.846-164Zm88.153-567.69v402.922q0 21.308-19.693 29.654-19.692 8.346-34.769-6.731l-146-146L736.308-599.77q8.923-9.539 8.192-19.192-.731-9.654-8.038-16.961-7.308-7.308-16.961-8.115-9.654-.808-19.192 8.345l-141.54 147.079-252.923-252.923q-15.077-15.077-6.731-34.769 8.346-19.693 29.654-19.693h402.922q27.308 0 45.808 18.5t18.5 45.808ZM364.616-461.232l99.231 98.231q8.692 8.692 20.307 8.884 11.615.193 20.692-8.884l2-2L350.847-521 223.923-394.076q-9.538 9.539-8.423 19.5 1.115 9.961 8.423 17.269 7.307 7.307 17.269 8.422 9.961 1.116 19.499-8.422l103.925-103.925Z"/></svg>

<svg xmlns="http://www.w3.org/2000/svg" height="20" viewBox="0 -960 960 960" width="20"><path d="M707.85-164H228.31Q202-164 183-183q-19-19-19-45.31v-479.54l-68.38-68.38q-7.93-7.92-8.12-17.69-.19-9.77 8.12-18.08 8.3-8.31 18.88-8.31 10.58 0 18.88 8.31L813-131.38q7.92 7.92 8.11 17.88.2 9.96-8.11 18.27-8.31 8.31-17.89 8.31-9.57 0-17.88-8.31L707.85-164ZM796-731.69v402.92q0 21.31-19.69 29.65-19.7 8.35-34.77-6.73l-146-146 140.77-147.92q8.92-9.54 8.19-19.19-.73-9.66-8.04-16.96-7.31-7.31-16.96-8.12-9.65-.81-19.19 8.35L558.77-488.61 305.85-741.54q-15.08-15.07-6.73-34.77Q307.46-796 328.77-796h402.92q27.31 0 45.81 18.5Q796-759 796-731.69ZM364.62-461.23 463.85-363q8.69 8.69 20.3 8.88 11.62.2 20.7-8.88l2-2-156-156-126.93 126.92q-9.54 9.54-8.42 19.5 1.12 9.97 8.42 17.27 7.31 7.31 17.27 8.43 9.96 1.11 19.5-8.43l103.93-103.92Z"/></svg>
